X:374
T:De'il Take The Wars. (p)1698.PLFD1.374
M:4/4
L:1/8
Q:1/2=60
S:Playford, Dancing Master,9th Ed,2nd Supp.,1698.
O:England;London
H:1698.
Z:Chris Partington.
K:C
c2(c/d/e)d3c|cG (A/B/)cG2E2|(EG)(Gc) (cd)(de)|(fe)(dc)d4|
c2(c/d/e)d3c|cG (A/B/)cG2E2|(EG)(Gc) (cd)(de)|(g/f/e) (d>c)c4:|
|:e2(e/f/)g ecec|B2(B/c/)d dBdB|e2ecd2dB|c2d/c/B/A/A3G|
E2G2G/A/G cG|EG G/A/GG3G|A2c2d3A|d>e dcB3A|G2GEG2cd|fe d>cc4:|
